X:1
T:Title
L:1/8
M:2/4
K:Ab
V:1 treble nm="Grand Piano"
V:1
 z[Q:1/4=100] F GA | G2 F=E | F2 C2- | CC _C=C | DC FG | AB c2- | cc Bc | dc BA | c2 B2- | BB AG | %10
 cB GA |[M:5/8] G2 F3- |[M:2/4] FF GA | G2 F=E | F2 C2- | CC _C=C | DC FG | AB c2- | cc Bc | %19
 dc BA | c2 B2- | BB AG | cB GA | G2 F2- | FF FF | G2 GG | A2 G2- | GG AB | cB GA | GF G2- | %30
 GF GA | G2 F=E | F2 C2- | CC _C=C | DC FG | AB c2- | cc Bc | dc BA | c2 B2- | BB AG | cB GA | %41
[M:5/8] G2 F3- |[M:2/4] F z z2 |] %43

